src/browser/themes/shared/zen-icons/lin/video-blocked-fill.svg

#filter dumbComments emptyLines substitution
# This Source Code Form is subject to the terms of the Mozilla Public
# License, v. 2.0. If a copy of the MPL was not distributed with this
# file, You can obtain one at http://mozilla.org/MPL/2.0/.
<svg xmlns="http://www.w3.org/2000/svg" xmlns:xlink="http://www.w3.org/1999/xlink" x="0px" y="0px" width="18px" height="18px" viewBox="0 0 18 18"><path d="M6.182,15h3.568c1.517,0,2.75-1.233,2.75-2.75v-3.568l-6.318,6.318Z" fill="context-fill" stroke-opacity="context-fill-opacity"></path><path d="M3.089,14.911L12.477,5.523c-.118-1.409-1.288-2.523-2.727-2.523H3.75c-1.517,0-2.75,1.233-2.75,2.75v6.5c0,1.288,.893,2.363,2.089,2.661Zm1.911-8.911c.552,0,1,.448,1,1s-.448,1-1,1-1-.448-1-1,.448-1,1-1Z" fill="context-fill" stroke-opacity="context-fill-opacity"></path><path d="M17.386,5.019c-.368-.217-.805-.227-1.183-.04l-2.203,2.203v4.637l2.147,1.181c.19,.105,.397,.157,.604,.157,.219,0,.438-.059,.635-.175,.385-.228,.614-.63,.614-1.077V6.096c0-.447-.229-.849-.614-1.077Z" fill="context-fill" stroke-opacity="context-fill-opacity"></path><path d="M2,16.75c-.192,0-.384-.073-.53-.22-.293-.293-.293-.768,0-1.061L15.47,1.47c.293-.293,.768-.293,1.061,0s.293,.768,0,1.061L2.53,16.53c-.146,.146-.338,.22-.53,.22Z" fill="context-fill" stroke-opacity="context-fill-opacity" data-color="color-2"></path></svg>

#filter dumbComments emptyLines substitution
# This Source Code Form is subject to the terms of the Mozilla Public
# License, v. 2.0. If a copy of the MPL was not distributed with this
# file, You can obtain one at http://mozilla.org/MPL/2.0/.
<svg fill="context-fill" width="18px" height="18px" viewBox="0 0 18 18" xmlns="http://www.w3.org/2000/svg" xmlns:svg="http://www.w3.org/2000/svg"><path d="m 2,16.75 c -0.192,0 -0.384,-0.073 -0.53,-0.22 -0.293,-0.293 -0.293,-0.768 0,-1.061 l 14,-13.999 c 0.293,-0.293 0.768,-0.293 1.061,0 0.293,0.293 0.293,0.768 0,1.061 L 2.53,16.53 C 2.384,16.676 2.192,16.75 2,16.75 Z M 17.386,5.019 C 17.018,4.802 16.581,4.792 16.203,4.979 L 14,7.182 v 4.637 L 16.147,13 c 0.19,0.105 0.397,0.157 0.604,0.157 0.219,0 0.438,-0.059 0.635,-0.175 C 17.771,12.754 18,12.352 18,11.905 V 6.096 C 18,5.649 17.771,5.247 17.386,5.019 Z M 3.089,14.911 12.477,5.523 C 12.359,4.114 11.189,3 9.75,3 h -6 C 2.233,3 1,4.233 1,5.75 v 6.5 c 0,1.288 0.893,2.363 2.089,2.661 z M 5,6 C 5.552,6 6,6.448 6,7 6,7.552 5.552,8 5,8 4.448,8 4,7.552 4,7 4,6.448 4.448,6 5,6 Z m 1.182,9 H 9.75 c 1.517,0 2.75,-1.233 2.75,-2.75 V 8.682 Z"/></svg>
